packages/axiom-materials/src/icon_svgs/question-mark-circle.svg

<?xml version="1.0" encoding="UTF-8"?>
<svg width="16px" height="16px" viewBox="0 0 16 16" version="1.1" xmlns="http://www.w3.org/2000/svg" xmlns:xlink="http://www.w3.org/1999/xlink">
    <!-- Generator: sketchtool 43.2 (39069) - http://www.bohemiancoding.com/sketch -->
    <title>question-mark-circle</title>
    <desc>Created with sketchtool.</desc>
    <defs></defs>
    <g id="Page-1" stroke="none" stroke-width="1" fill="none" fill-rule="evenodd">
        <g id="question-mark-circle" fill="#000000">
            <path d="M15,8 C15,4.134 11.866,1 8,1 C4.134,1 1,4.134 1,8 C1,11.866 4.134,15 8,15 C11.866,15 15,11.866 15,8 M16,8 C16,12.418 12.418,16 8,16 C3.582,16 0,12.418 0,8 C0,3.582 3.582,0 8,0 C12.418,0 16,3.582 16,8 M5.778,6.362 L5.778,6.64 L7.002,6.64 L7.002,6.362 C7.002,5.811 7.45,5.39 8,5.39 C8.55,5.39 8.998,5.811 8.998,6.364 C9.002,6.814 8.78,7.045 8.388,7.416 L8.329,7.472 C8.144,7.645 7.936,7.841 7.76,8.083 C7.513,8.422 7.375,8.791 7.375,9.179 L7.375,9.19999981 L8.625,9.19999981 L8.625,9.179 C8.625,9.04 8.649,8.938 8.747,8.802 C8.847,8.665 9.009,8.513 9.181,8.351 L9.23,8.305 C9.578,7.975 10.227,7.361 10.222,6.361 C10.219,5.136 9.222,4.14 8,4.14 C6.775,4.14 5.778,5.137 5.778,6.362 Z M8.9000001,11.0249996 C8.9000001,11.5078285 8.50782897,11.8999996 8.0250001,11.8999996 C7.54217122,11.8999996 7.1500001,11.5078285 7.1500001,11.0249996 C7.1500001,10.5421707 7.54217122,10.1499996 8.0250001,10.1499996 C8.50782897,10.1499996 8.9000001,10.5421707 8.9000001,11.0249996" id="Help-Popup-Circle"></path>
        </g>
    </g>
</svg>

<svg height="16" viewBox="0 0 16 16" width="16" xmlns="http://www.w3.org/2000/svg"><path d="m15 8c0-3.866-3.134-7-7-7s-7 3.134-7 7 3.134 7 7 7 7-3.134 7-7m1 0c0 4.418-3.582 8-8 8s-8-3.582-8-8 3.582-8 8-8 8 3.582 8 8m-10.222-1.638v.278h1.224v-.278c0-.551.448-.972.998-.972s.998.421.998.974c.004.45-.218.681-.61 1.052l-.059.056c-.185.173-.393.369-.569.611-.247.339-.385.708-.385 1.096v.02099981h1.25v-.02099981c0-.139.024-.241.122-.377.1-.137.262-.289.434-.451l.049-.046c.348-.33.997-.944.992-1.944-.003-1.225-1-2.221-2.222-2.221-1.225 0-2.222.997-2.222 2.222zm3.1220001 4.6629996c0 .4828289-.39217113.875-.875.875-.48282888 0-.875-.3921711-.875-.875s.39217112-.875.875-.875c.48282887 0 .875.3921711.875.875" fill-rule="evenodd"/></svg>
